icon-themes/breeze_svg/cmd/lc_smallcaps.svg

<svg viewBox="0 0 24 24" xmlns="http://www.w3.org/2000/svg"><path d="m6.2089844 8-2.8417969 8.222656-.1054687.34961-1.2617188 3.427734h1.4199219l1.3945312-3.802734h4.65625l1.3945309 3.802734h1.419922l-1.261718-3.427734-.105469-.34961-2.8417971-8.222656h-.1835938-1.5zm.9472656 1.6601562 1.8339844 5.3398438h-3.6953125zm5.84375 1.3398438v9h1 5.5a2.4999914 2.4999914 0 0 0 2.5-2.5 2.4999914 2.4999914 0 0 0 -1.632812-2.341797 2.5 2.5 0 0 0 .632812-1.658203 2.5 2.5 0 0 0 -2.5-2.5h-4.5zm1 1h4.5a1.5 1.5 0 0 1 1.5 1.5 1.5 1.5 0 0 1 -1.5 1.5h-4.5zm0 4h5.5a1.5 1.5 0 0 1 1.5 1.5 1.5 1.5 0 0 1 -1.5 1.5h-5.5z" fill="#4d4d4d"/><path d="m17 3-3 4h6z" fill="#1d99f3"/></svg>

<svg xmlns="http://www.w3.org/2000/svg" viewBox="0 0 24 24">
 <path 
     style="fill:#4d4d4d" 
     d="M 6.2089844 8 L 3.3671875 16.222656 L 3.2617188 16.572266 L 2 20 L 3.4199219 20 L 4.8144531 16.197266 L 9.4707031 16.197266 L 10.865234 20 L 12.285156 20 L 11.023438 16.572266 L 10.917969 16.222656 L 8.0761719 8 L 7.8925781 8 L 6.3925781 8 L 6.2089844 8 z M 7.15625 9.6601562 L 8.9902344 15 L 5.2949219 15 L 7.15625 9.6601562 z M 13 11 L 13 20 L 14 20 L 19.5 20 A 2.4999914 2.4999914 0 0 0 22 17.5 A 2.4999914 2.4999914 0 0 0 20.367188 15.158203 A 2.5 2.5 0 0 0 21 13.5 A 2.5 2.5 0 0 0 18.5 11 L 14 11 L 13 11 z M 14 12 L 18.5 12 A 1.5 1.5 0 0 1 20 13.5 A 1.5 1.5 0 0 1 18.5 15 L 14 15 L 14 12 z M 14 16 L 19.5 16 A 1.5 1.5 0 0 1 21 17.5 A 1.5 1.5 0 0 1 19.5 19 L 14 19 L 14 16 z "
     />
 <path 
     style="fill:#1d99f3" 
     d="M 17 3 L 14 7 L 20 7 L 17 3 z "
     />
 </svg>
